src/components/stable/gux-icon/icons/cc-inbound.svg

<svg viewBox="0 0 20 28" fill="none" xmlns="http://www.w3.org/2000/svg">
  <path d="M6.85247 10.7214L9.37781 8.31271C10.0663 7.41605 10.1808 6.18326 9.43501 4.72707L7.65646 1.30899C6.96792 -0.0354976 5.36099 -0.42747 4.15553 0.525044C2.31873 1.98123 0.941655 3.99898 0.253117 6.24013C-0.205562 7.75318 -0.0339474 9.37794 0.711795 10.7783L2.83461 14.8686L5.58877 20.1348L7.76983 24.281C8.45837 25.6814 9.66383 26.7466 11.1553 27.3061C13.4508 28.1469 16.0333 28.2028 18.386 27.5864C19.7059 27.2503 20.3944 25.7372 19.7631 24.5613C19.0745 23.2168 18.386 21.9282 17.6975 20.5837C17.1805 19.5753 16.0905 18.9589 14.9433 18.9589L11.1564 19.0148L6.85247 10.7214Z"/>
</svg>

<svg viewBox="0 0 20 28" fill="none" xmlns="http://www.w3.org/2000/svg"><path d="M6.852 10.721l2.526-2.408c.688-.897.803-2.13.057-3.586L7.656 1.31C6.968-.035 5.361-.427 4.156.525A11.738 11.738 0 00.253 6.24a5.96 5.96 0 00.459 4.538l2.123 4.09 2.754 5.267 2.18 4.146c.69 1.4 1.895 2.466 3.386 3.025 2.296.84 4.878.897 7.231.28 1.32-.336 2.008-1.849 1.377-3.025-.689-1.344-1.377-2.633-2.066-3.977-.517-1.009-1.607-1.625-2.754-1.625l-3.787.056-4.304-8.294z"/></svg>
